X:1
T:Roxanne
C:Sting
Z:All Rights Reserved
L:1/8
M:4/4
K:Bb
V:1 treble 
%%MIDI program 40
V:1
"Gm" z8 |"Gm" z8 |"Gm" z8 |"Dm/F" z8 |"Ebmaj7" z8 |"Dm" z8 |"Cm" z8 |"Fsus4" z6"G7sus4" z2 | z8 | %9
w: |||||||||
 z4 z g- g2 |"^A""Gm" d4 z4 |"Dm/F" z2 z b- bag>a- |"Ebmaj7" agag a2 f2- |"Dm" f2 z2 z4 | %14
w: Rox- *|anne|You _ don't have to|_ put on the red light|_|
"Cm" z2 z d e g2 f |"Fsus4" g2 z2 fgg"G7sus4"f | _d'2 c'b ggfg- | g2 z2 z2 b2- |"Gm" bg- g4 z2 | %19
w: those days are o-|ver you don't have to|sell your bod- y to the night|_ Rox-|* anne _|
"Dm/F" z4 fggf |"Ebmaj7" g2 ab- b g2 a- |"Dm" a2 z2 z4 |"Cm" z2 z b a a2 g | %23
w: you don't have to|wear that dress _ to- night|_|walk the streets for|
"Fsus4" ag- g2 z fg"G7sus4"b- | b2 ag a2 fg | g2 g2 z2 c'2- |"^B""Cm" c'3 g- g2 z2 | %27
w: money _ _ you don't care|_ if it's wrong or if|it's right Rox-|* anne _|
"Fsus4" z4 fggf |"Gsus4" ggfg- gf b2- | b2 z2 z c'- c'2- |"Cm" c'g- g2 z4 | %31
w: you don't have to|put on your red _ _ light|_ Rox- *|* anne _|
"Fsus4" z4 fgg"G7sus4"f | ggfg- gfgf | z4 z"Cm" e2"Bb" f- |:"^C" d'c'bc' b2 b2 | %35
w: You don't have to|put on the red _ _ light _|Rox- anne|(Put on your red _ light)|
 f2- f2 z"Eb" e2"F" f- | d'c'bc' c'b c'2 | f4 z"F" a2"Gm" g- | d'c'bc' b2 b2 | %39
w: * * Rox anne|(Put on your red _ _ light)|* Rox anne|(Put on your red _ light)|
"^Repeat and Fade on Outro" g4 z"Cm" a2"Bb" f- :| d'c'bc' b2 b2 | f4 z"Eb" g2"F" a- | %42
w: * Rox anne|(Put on your red _ light)|* Rox anne|
 d'c'bc' b2 c'2 | a2 z2 z a2"G7sus4" f | z8 | z8 |"Gm" z8 |"Gm/F" z8 |"Gm" z8 |"Gm/F" z8 | %50
w: (Put on your red _ light)|* Oh _|||||||
"^A""Gm" cBBd f2 f2 |"Dm/F" z4 z2 z a |"Ebmaj7" abab a2 c'2- |"Dm" c'2 z2 z2 z g |"Cm" b2 ag agba | %55
w: Loved you since I knew you|I|would- n't talk down to ya|_ I|have to tell you just how I|
"Fsus4" a2 z2 z g2"G7sus4" f | _d'2 c'b ggfg- | g2 z2 z2 z d |"Gm" bbaa g2 b2 |"Dm/F" z4 z2 z f | %60
w: fell I won't|share you with an- oth- er boy|_ I|know my mind is made up|so|
"Ebmaj7" bbaa g2 b2 |"Dm" z8 |"Cm" z c'2 b a a2 g |"Fsus4" ag- g2 z fg"G7sus4"b- | b2 ag z4 | %65
w: put a- way you make- up||told you once I won't|tell you again it's a crime|_ the way...|
 z6 c'2"^Go back to B Section" :| %66
w: Rox|

